icons/sign-in-16.svg

<svg xmlns="http://www.w3.org/2000/svg" width="16" height="16" viewBox="0 0 16 16"><path d="M2 2.75C2 1.784 2.784 1 3.75 1h2.5a.75.75 0 010 1.5h-2.5a.25.25 0 00-.25.25v10.5c0 .138.112.25.25.25h2.5a.75.75 0 010 1.5h-2.5A1.75 1.75 0 012 13.25zm6.56 4.5h5.69a.75.75 0 010 1.5H8.56l1.97 1.97a.749.749 0 01-.326 1.275.749.749 0 01-.734-.215L6.22 8.53a.75.75 0 010-1.06l3.25-3.25a.749.749 0 011.275.326.749.749 0 01-.215.734z"/></svg>

<svg xmlns="http://www.w3.org/2000/svg" width="16" height="16" viewBox="0 0 16 16">
  <defs/>
  <path d="M2,2.75 C2,1.784 2.784,1 3.75,1 L6.25,1 C6.664,1 7,1.336 7,1.75 C7,2.164 6.664,2.5 6.25,2.5 L3.75,2.5 C3.612,2.5 3.5,2.612 3.5,2.75 L3.5,13.25 C3.5,13.388 3.612,13.5 3.75,13.5 L6.25,13.5 C6.664,13.5 7,13.836 7,14.25 C7,14.664 6.664,15 6.25,15 L3.75,15 C2.784,15 2,14.216 2,13.25 Z M8.56,7.25 L14.25,7.25 C14.664,7.25 15,7.586 15,8 C15,8.414 14.664,8.75 14.25,8.75 L8.56,8.75 L10.53,10.72 C10.731,10.907 10.813,11.189 10.745,11.454 C10.678,11.72 10.47,11.928 10.204,11.995 C9.939,12.063 9.657,11.981 9.47,11.78 L6.22,8.53 C5.928,8.237 5.928,7.763 6.22,7.47 L9.47,4.22 C9.657,4.019 9.939,3.937 10.204,4.005 C10.47,4.072 10.678,4.28 10.745,4.546 C10.813,4.811 10.731,5.093 10.53,5.28 Z"/>
</svg>
